ummisco.gama.ui.shared/svg/markers/marker.warning.svg

<svg xmlns="http://www.w3.org/2000/svg" width="12" height="12" viewBox="-712 -3730 12 12"><g fill="none"><circle cx="-706" cy="-3724" r="5" fill="#000"/><path fill="#fec700" d="M-706-3730c-3.318 0-6 2.682-6 6s2.682 6 6 6 6-2.682 6-6-2.682-6-6-6Zm3 8.154-.846.846-2.154-2.154-2.154 2.154-.846-.846 2.154-2.154-2.154-2.154.846-.846 2.154 2.154 2.154-2.154.846.846-2.154 2.154 2.154 2.154Z"/></g></svg>

<?xml version="1.0" encoding="UTF-8" standalone="no"?>
<!DOCTYPE svg PUBLIC "-//W3C//DTD SVG 1.1//EN" "http://www.w3.org/Graphics/SVG/1.1/DTD/svg11.dtd">
<svg xmlns:xl="http://www.w3.org/1999/xlink" version="1.1" xmlns="http://www.w3.org/2000/svg" xmlns:dc="http://purl.org/dc/elements/1.1/" viewBox="-712 -3730 12 12" width="12" height="12">
  <defs/>
  <g id="ICONES" stroke="none" stroke-opacity="1" stroke-dasharray="none" fill="none" fill-opacity="1">
    <title>ICONES</title>
    <g id="ICONES_Calque_1">
      <title>Calque 1</title>
      <g id="Group_2109">
        <title>markers/marker.warning</title>
        <g id="Graphic_2111">
          <circle cx="-706" cy="-3724" r="5.00000798950939" fill="black"/>
        </g>
        <g id="Graphic_2110">
          <path d="M -706 -3730 C -709.318 -3730 -712 -3727.318 -712 -3724 C -712 -3720.682 -709.318 -3718 -706 -3718 C -702.682 -3718 -700 -3720.682 -700 -3724 C -700 -3727.318 -702.682 -3730 -706 -3730 Z M -703 -3721.846 L -703.846 -3721 L -706 -3723.154 L -708.154 -3721 L -709 -3721.846 L -706.846 -3724 L -709 -3726.154 L -708.154 -3727 L -706 -3724.846 L -703.846 -3727 L -703 -3726.154 L -705.154 -3724 L -703 -3721.846 Z" fill="#fec700"/>
        </g>
      </g>
    </g>
  </g>
</svg>
